src/assets/outline/BackSquare.svg

<svg width="24" height="24" viewBox="0 0 24 24"  xmlns="http://www.w3.org/2000/svg">
<path d="M15 22.75H9C3.57 22.75 1.25 20.43 1.25 15V9C1.25 3.57 3.57 1.25 9 1.25H15C20.43 1.25 22.75 3.57 22.75 9V15C22.75 20.43 20.43 22.75 15 22.75ZM9 2.75C4.39 2.75 2.75 4.39 2.75 9V15C2.75 19.61 4.39 21.25 9 21.25H15C19.61 21.25 21.25 19.61 21.25 15V9C21.25 4.39 19.61 2.75 15 2.75H9Z" />
<path d="M13.9199 16.13H8.9999C8.5899 16.13 8.2499 15.79 8.2499 15.38C8.2499 14.97 8.5899 14.63 8.9999 14.63H13.9199C15.1999 14.63 16.2499 13.59 16.2499 12.3C16.2499 11.01 15.2099 9.96997 13.9199 9.96997H7.1499C6.7399 9.96997 6.3999 9.62997 6.3999 9.21997C6.3999 8.80997 6.7399 8.46997 7.1499 8.46997H13.9199C16.0299 8.46997 17.7499 10.19 17.7499 12.3C17.7499 14.41 16.0299 16.13 13.9199 16.13Z" />
<path d="M8.56994 11.5201C8.37994 11.5201 8.18994 11.4501 8.03994 11.3001L6.46994 9.73007C6.17994 9.44007 6.17994 8.96007 6.46994 8.67007L8.03994 7.10007C8.32994 6.81007 8.80994 6.81007 9.09994 7.10007C9.38994 7.39007 9.38994 7.87007 9.09994 8.16007L8.05994 9.20007L9.09994 10.2401C9.38994 10.5301 9.38994 11.0101 9.09994 11.3001C8.95994 11.4401 8.76994 11.5201 8.56994 11.5201Z" />
</svg>

<?xml version="1.0" encoding="UTF-8"?>
<svg width="24" height="24" viewBox="0 0 24 24" xmlns="http://www.w3.org/2000/svg">
 <path d="m15 22.75h-6c-5.43 0-7.75-2.32-7.75-7.75v-6c0-5.43 2.32-7.75 7.75-7.75h6c5.43 0 7.75 2.32 7.75 7.75v6c0 5.43-2.32 7.75-7.75 7.75zm-6-20c-4.61 0-6.25 1.64-6.25 6.25v6c0 4.61 1.64 6.25 6.25 6.25h6c4.61 0 6.25-1.64 6.25-6.25v-6c0-4.61-1.64-6.25-6.25-6.25h-6z"/>
 <path d="m13.92 16.13h-4.92c-0.41 0-0.75-0.34-0.75-0.75s0.34-0.75 0.75-0.75h4.92c1.28 0 2.33-1.04 2.33-2.33s-1.04-2.33-2.33-2.33h-6.77c-0.41 0-0.75-0.34-0.75-0.75s0.34-0.75 0.75-0.75h6.77c2.11 0 3.83 1.72 3.83 3.83s-1.72 3.83-3.83 3.83z"/>
 <path d="m8.5699 11.52c-0.19 0-0.38-0.07-0.53-0.22l-1.57-1.57c-0.29-0.29-0.29-0.77 0-1.06l1.57-1.57c0.29-0.29 0.77-0.29 1.06 0s0.29 0.77 0 1.06l-1.04 1.04 1.04 1.04c0.29 0.29 0.29 0.77 0 1.06-0.14 0.14-0.33 0.22-0.53 0.22z"/>
</svg>
